X: 05035
T: HEAVENS TO BETSY
C: Bob McQuillen 19 Nov 80
B: Bob's Note Book 5 #35
%R: jig
Z: 2021 John Chambers <jc:trillian.mit.edu>
M: 6/8
L: 1/8
K: D	# and Bm
DE \
| FDD DFB | AFD DFA | dcB AFD | E3- E2 CD || ECA, A,2F | GEE E2A | cdc BAB | F2F EDE |
| FDD DFB | BAF DFA | dcd dfd | B3- B Bc || dBd efe | AFA d2d | cBA ABc | d3- d |]
K: Bm
[| DE \
| FDB, DEG | FBA FDE | FGF EDC | B,3- B, DE || FDB, D2E | FBB B2c | dcB cBA | B3 B2c ||
| dBd cAc | BGB A2F | GAB BAG | F2F EDC | B,CD CDE | FDF E2G | FDF EDC | B,3- B, |]
%%begintext align
%% I told Betsy
%% Maislen, who plays silver flute for
%% "Smash the Window", that I'd write
%% her a tune with this title, so here it
%% is, Betsy, & I sure hope you like it!
%%endtext

%%sep 1 1 500

%%sep 1 1 500

